X:1
T:Une jeune fillette
Z:Eric Forgeot - http://anamnese.online.fr
H:Micard 1576 (Chardavoine)   ?
N:luth donc 3 ème corde de sol en fa#
L:1/4
M:4/4
K:C french
%%scale 0.59
%%--strictness2 1
%%tabrhstyle modern
%%tabfontitalian itBorrono
%%tabfontfrench frFrancisque
%%--historicstyle
%%indent 0.6cm
%%sysstaffsep  30pt
%%barnumberfont Times-Italic 10 box
V:L1 clef=frenchtab name="Luth 1"
V:L2 clef=frenchtab name="Luth 2"
V:G1 clef=spanishtab name="Guitare 1"
V:G2 clef=spanishtab name="Guitare 2"
%
[V:L1] a | [Abc] [Ca] [D,c] [Ab] | [CAC]>a d [dd] | [A,c] c c b | [Ac3] a |\
[Abc] [Ca] [D,c/2] cda | [CAc3/2] a/2 d c [da] | [A,c] [A,c] c b | [Ac2] a ||
[Af2] [f] [Fa] | [dA,,a] c/2 a b d [ca] | [da] [Fa] [f] [a] | [fca2] [ca] c |\ 
[dAc] b [Ad] a | [Cda] a/2 a [db] a | [Cc] [Ab] [Aa] e | [A,c2] a/2 cdf |
[Af2] [f] [Fa] | [dAc] c/2 a b e [ca] |[da] [Fa] [f] [a] | [Fa/2] dca [ca] c |\
[dA,,a/2] fdc [A,,a] [Ad] | [Cda/2] dca d c a | [Cc/2] d [A,c] [Aa/2] e/4 c e | [A,c2] a ||
%
[V:L2] x | [ACa] [Ab] [AC] c | [D,c]>c a [A,c] | [C,a] [A,,d] [D,c2] | [C,a2] c |\
[ACa] [Ab] [Ac/2] d a c | [D,c/2] a d c a [A,c] | [C,a] [A,,d] [D,c] a/2 d | [C,a2] c ||
[D,,d2] [D,,d] [C,a] | [Abc2] a [eAc] | [A,c] [C,a] [dD,,d] f | [CD,c] c [dAc] d |\
[AB,a3/2] d/2 [C,a] c | [Da] d [A,,d] b |[Da] [A,,a] [A,c2] | [A,,a2] b/2 d a c | 
[D,,d3/2] c/2 [D,,d] a [C,a]|[AB,a/2] a b d a c [eA,c] | [A,c] [C,a] [dD,,d] f | [CD,c] c [dAc/2] c d a |\
[Abc3/2] d/2 [C,a] d a c | [Da/2] a d c [A,,d] b | [Da] [B,a/2] d [A,c] a c | [A,,,a2] c ||
%
%% <!> The parts below is just a carbon copy of the above
%
[V:G1] a | [Abc] [Ca] [D,c] [Ab] | [CAC]>a d [dd] | [A,c] c c b | [Ac3] a |\
[Abc] [Ca] [D,c/2] cda | [CAc3/2] a/2 d c [da] | [A,c] [A,c] c b | [Ac2] a ||
[Af2] [f] [Fa] | [dA,,a] c/2 a b d [ca] | [da] [Fa] [f] [a] | [fca2] [ca] c |\ 
[dAc] b [Ad] a | [Cda] a/2 a [db] a | [Cc] [Ab] [Aa] e | [A,c2] a/2 cdf |
[Af2] [f] [Fa] | [dAc] c/2 a b e [ca] |[da] [Fa] [f] [a] | [Fa/2] dca [ca] c |\
[dA,,a/2] fdc [A,,a] [Ad] | [Cda/2] dca d c a | [Cc/2] d [A,c] [Aa/2] e/4 c e | [A,c2] a ||
%
[V:G2] x | [ACa] [Ab] [AC] c | [D,c]>c a [A,c] | [C,a] [A,,d] [D,c2] | [C,a2] c |\
[ACa] [Ab] [Ac/2] d a c | [D,c/2] a d c a [A,c] | [C,a] [A,,d] [D,c] a/2 d | [C,a2] c ||
[D,,d2] [D,,d] [C,a] | [Abc2] a [eAc] | [A,c] [C,a] [dD,,d] f | [CD,c] c [dAc] d |\
[AB,a3/2] d/2 [C,a] c | [Da] d [A,,d] b |[Da] [A,,a] [A,c2] | [A,,a2] b/2 d a c | 
[D,,d3/2] c/2 [D,,d] a [C,a]|[AB,a/2] a b d a c [eA,c] | [A,c] [C,a] [dD,,d] f | [CD,c] c [dAc/2] c d a |\
[Abc3/2] d/2 [C,a] d a c | [Da/2] a d c [A,,d] b | [Da] [B,a/2] d [A,c] a c | [A,,,a2] c ||
%% end of copied parts
% 
%%begintext
%%
%%Une jeune fillette de noble coeur,
%%Plaisante et joliette de grand' valeur,
%%Outre son gre on l'a rendu' nonnette
%%Cela point ne luy haicte dont vit en grand' douleur.
%%
%%Vn soir apres complie seulette estoit,
%%En grand melancolie se tourmentoit,
%%Disant ainsi, douce Vierge Marie
%%Abregez moy la vie, puisque mourir je doy.
%%endtext







